www/assets/icons/local_parking.svg

<svg xmlns="http://www.w3.org/2000/svg" width="24" height="24" viewBox="0 0 24 24" fill='currentColor'><path d="M12.5 3h-7v18h4v-6h3c3.31 0 6-2.69 6-6s-2.69-6-6-6m.2 8H9.5V7h3.2c1.1 0 2 .9 2 2s-.9 2-2 2"/></svg>

<svg width="24" height="24" viewBox="0 0 24 24" xmlns="http://www.w3.org/2000/svg" fill='currentColor'><path d="M12.5 3H5.5V21H9.5V15H12.5C15.81 15 18.5 12.31 18.5 9C18.5 5.69 15.81 3 12.5 3ZM12.7 11H9.5V7H12.7C13.8 7 14.7 7.9 14.7 9C14.7 10.1 13.8 11 12.7 11Z"/></svg>
